X:1
T:He Shall Reign from Sea to Sea
T:He Shall Reign from Sea to Sea
T:James McGranahan, 1895
T:Adoniram Judson Gordon (1836-1895)
T:Public Domain Courtesy of the Cyber Hymnal™
T:Public Domain Courtesy of the Cyber Hymnal™
C:James McGranahan, 1895
Z:Public Domain
Z:Courtesy of the Cyber Hymnal™
%%score ( 1 2 ) ( 3 4 )
L:1/8
Q:1/4=100
M:6/8
K:F
V:1 treble 
V:2 treble 
V:3 bass 
V:4 bass 
V:1
 C | (CD)E F2 [EG] | [FA]2 [FA] [FA]2 [FA] | [Fc]2 [CB] [CE]2 [CF] | [EG]3- [EG]2 [CE] | %5
w: 1.~O|Church * of Christ! be-|hold at last The|prom- ised sign ap-|pear— * The|
w: 2.~With|gird- * ed loins, make|haste, make haste, Thy|wit- ness to com-|plete; * That|
w: 3.~And|thou, * O Is- rael,|long in dust, A-|rise! and come a-|way; * See|
w: 4.~The|scat- * tered sons are|ga- thering home, The|fig tree buds a-|gain; * A|
w: 5.~Then|sing * a- loud, O|pil- grim Church, Brief|con- flict yet re-|mains; * And|
 [CE]2 [DF] [EG]2 [FA] | [GB]2 [GB] [GB]2 [GB] | [Ge]2 [Gd] [Fd]2 [FG] | [Ec]3- [Ec]2 || %9
w: Gos- pel preached in|all the world; And|lo! the King draws|near. *|
w: Christ may take His|throne and bring All|na- tions to His|feet. *|
w: how the Sun of|Right- eous- ness Sheds|forth the beams of|day. *|
w: lit- tle while, and|Da- vid’s Son On|Da- vid’s throne shall|reign. *|
w: then Im- man- u-|el des- cends To|bind thy foe in|chains. *|
"^Refrain" [Cc]/[Cc]/ | [Cc]2 [EG] (GA)[EB] | [F-d]3 [Fc]2 F/E/ | DEF A2 G | [EG]3- [EG]2 c/c/ | %14
w: |||||
w: |||||
w: He shall|reign from sea * to|sea, * When He|girds on His con- quering|sword; * All the|
w: |||||
w: |||||
 c[Gc][Bc] [Af]2 [Fc] | [F-e]3 !fermata![Fd]2 [Fd]/[Fd]/ | (dc)[EB] [EA]2 [CG] | [CF]3- [CF]2 |] %18
w: ||||
w: ||||
w: ends of the earth shall|see * The sal-|va- * tion of our|God. *|
w: ||||
w: ||||
V:2
 C | CDE F2 x | x6 | x6 | x6 | x6 | x6 | x6 | x5 || x | x3 E2 x | x5 F/E/ | DEF A2 G | x5 c/c/ | %14
 c x5 | x6 | E2 x4 | x5 |] %18
V:3
 C, | C,D,E, F,2 [C,C] | [F,C]2 [F,C] [F,C]2 [F,C] | [A,C]2 [G,C] [G,B,]2 [F,A,] | %4
 [C,C]3- [C,C]2 [C,C] | [B,C]2 [A,C] [G,C]2 [F,C] | [E,C]2 [D,C] [C,C]2 [C,C] | %7
 [C,B,]2 [E,B,] [G,=B,]2 [G,B,] | [C,C]3- [C,C]2 || [C,C]/[C,C]/ | [C,C]2 [B,C] C2 [G,B,] | %11
 [F,-B,]3 [F,A,]2 F,/F,/ | D,E,F, A,2 G, | [C,C]3- [C,C]2 C/C/ | C[B,C][G,C] [F,C]2 [A,,C] | %15
 [B,,-C]3 !fermata![B,,B,]2 [B,,B,]/[B,,B,]/ | (B,A,)[C,G,] [C,C]2 [C,B,] | [F,A,]3- [F,A,]2 |] %18
V:4
 C, | (C,D,)E, F,2 x | x6 | x6 | x6 | x6 | x6 | x6 | x5 || x | x3 (B,A,) x | x5 F,/F,/ | %12
 D,E,F, A,2 G, | x5 C/C/ | C x5 | x6 | C,2 x4 | x5 |] %18

